icons/sass.svg

<svg width="24" height="24" viewBox="0 0 24 24" fill="none" xmlns="http://www.w3.org/2000/svg">
<path fill-rule="evenodd" clip-rule="evenodd" d="M16.414 2.14376C17.6721 2.37784 18.935 2.95304 19.5468 4.13645C20.1773 5.35688 20.1113 6.54329 19.5872 7.54264C19.0916 8.48697 18.2277 9.19321 17.3588 9.66738C16.482 10.1455 15.4939 10.4456 14.628 10.5047C14.1975 10.5347 13.7443 10.5067 13.3315 10.3716C12.9178 10.2356 12.4617 9.95948 12.2085 9.4393C12.0946 9.20907 12.0726 8.9431 12.147 8.69679C12.2214 8.45049 12.3866 8.24285 12.6081 8.11712C12.8295 7.9914 13.0902 7.95729 13.3358 8.0219C13.5815 8.08651 13.7931 8.24486 13.9266 8.46396C13.9298 8.46532 13.9331 8.46665 13.9364 8.46796C14.0349 8.49997 14.2191 8.52798 14.497 8.50797C15.0486 8.47096 15.7658 8.26489 16.4259 7.90476C17.0928 7.54164 17.5982 7.07848 17.8484 6.60131C18.0701 6.18016 18.1262 5.69299 17.8031 5.06678C17.6061 4.68464 17.076 4.30051 16.0594 4.11144C15.0762 3.92838 13.828 3.97139 12.5474 4.24149C11.2696 4.51158 10.0224 4.99475 9.03337 5.63897C8.03444 6.2892 7.38326 7.04546 7.13303 7.82974C6.8631 8.67703 6.95866 9.27424 7.20199 9.76441C7.46995 10.3016 7.95858 10.7998 8.6334 11.333C8.96047 11.591 9.30724 11.8401 9.67272 12.1032L9.69243 12.1172C10.0579 12.3793 10.4441 12.6564 10.8037 12.9455C11.1081 13.1886 11.4174 13.4587 11.7021 13.7628C12.9759 13.5127 14.0793 13.5397 14.9846 13.9599C16.149 14.5011 16.7322 15.5674 17.0071 16.7739C17.0401 16.9032 17.0472 17.0379 17.0281 17.1701C17.009 17.3023 16.964 17.4292 16.8958 17.5434C16.8275 17.6577 16.7375 17.7569 16.6309 17.8352C16.5243 17.9135 16.4033 17.9693 16.2752 17.9994C16.147 18.0294 16.0142 18.0331 15.8845 18.0102C15.7549 17.9873 15.6311 17.9383 15.5205 17.866C15.4098 17.7938 15.3146 17.6997 15.2403 17.5894C15.166 17.4792 15.1143 17.3549 15.088 17.224C14.891 16.3577 14.5689 15.9676 14.165 15.7795C13.8694 15.6425 13.4261 15.5634 12.768 15.6245C13.3749 17.7902 12.3149 19.7519 11.0184 20.8633C10.319 21.4625 9.46486 21.8986 8.60877 21.9847C7.71525 22.0757 6.75966 21.7706 6.19813 20.8233C5.70359 19.986 5.69965 19.0957 5.95776 18.3024C6.20601 17.5401 6.69661 16.8539 7.2345 16.2857C7.91848 15.5748 8.7047 14.9734 9.56633 14.5021C9.23567 14.2431 8.89865 13.9926 8.55557 13.7508L8.52011 13.7248C8.14856 13.4626 7.78298 13.1917 7.42365 12.9125C6.68479 12.3273 5.91146 11.6081 5.44352 10.6657C4.95095 9.67538 4.83864 8.53098 5.2593 7.21252C5.69965 5.83004 6.75178 4.74766 7.96942 3.95439C9.1969 3.15611 10.6786 2.59291 12.1464 2.28381C13.6103 1.9737 15.1215 1.90367 16.414 2.14376ZM10.848 16.0886C10.0302 16.48 9.28764 17.0163 8.65507 17.6722C8.23146 18.1193 7.9507 18.5545 7.82756 18.9316C7.71525 19.2777 7.74086 19.5448 7.88666 19.7929C7.96843 19.9299 8.09354 20.027 8.41371 19.994C8.77329 19.958 9.26685 19.7469 9.74858 19.3337C10.6697 18.5455 11.2273 17.323 10.848 16.0886Z" fill="black"/>
</svg>

<svg
  width="24"
  height="24"
  viewBox="0 0 24 24"
  xmlns="http://www.w3.org/2000/svg"
>
  <path
    fill-rule="evenodd"
    clip-rule="evenodd"
    d="M16.414 2.144c1.258.234 2.521.809 3.133 1.992.63 1.22.564 2.407.04 3.407-.495.944-1.36 1.65-2.228 2.124-.877.479-1.865.779-2.731.838-.43.03-.884.002-1.296-.133-.414-.136-.87-.413-1.123-.933a1.015 1.015 0 0 1-.062-.742.997.997 0 0 1 .461-.58.972.972 0 0 1 .728-.095.986.986 0 0 1 .59.442.444.444 0 0 0 .01.004c.099.032.283.06.561.04.552-.037 1.269-.243 1.929-.603.667-.363 1.172-.827 1.422-1.304.222-.42.278-.908-.045-1.534-.197-.382-.727-.766-1.744-.956-.983-.183-2.231-.14-3.512.13-1.277.27-2.525.754-3.514 1.398-.999.65-1.65 1.406-1.9 2.19-.27.848-.174 1.445.069 1.935.268.538.757 1.036 1.431 1.569.327.258.674.507 1.04.77l.02.014c.365.262.751.54 1.11.828.305.244.614.514.9.818 1.273-.25 2.376-.223 3.282.197 1.164.541 1.747 1.607 2.022 2.814a1.015 1.015 0 0 1-.376 1.061.98.98 0 0 1-.747.175.975.975 0 0 1-.644-.42 1.01 1.01 0 0 1-.152-.366c-.197-.866-.52-1.256-.923-1.444-.296-.137-.739-.217-1.397-.155.607 2.165-.453 4.127-1.75 5.238-.699.6-1.553 1.036-2.41 1.122-.893.09-1.848-.214-2.41-1.162-.494-.837-.498-1.727-.24-2.52.248-.763.739-1.45 1.276-2.017a9.689 9.689 0 0 1 2.332-1.784c-.33-.259-.667-.51-1.01-.751l-.036-.026a29.653 29.653 0 0 1-1.096-.813c-.74-.585-1.513-1.304-1.98-2.246-.493-.99-.605-2.135-.185-3.453.44-1.383 1.493-2.465 2.71-3.259 1.228-.798 2.71-1.361 4.177-1.67 1.464-.31 2.975-.38 4.268-.14zm-5.566 13.945a7.614 7.614 0 0 0-2.193 1.583c-.424.447-.704.883-.827 1.26-.113.346-.087.613.059.86.081.138.207.235.527.202.36-.036.853-.247 1.335-.66.92-.788 1.478-2.011 1.099-3.245z"
  />
</svg>
